icons/loopback.svg

<?xml version="1.0" encoding="UTF-8"?>
<svg width="512px" height="138px" viewBox="0 0 512 138" version="1.1" xmlns="http://www.w3.org/2000/svg" xmlns:xlink="http://www.w3.org/1999/xlink" preserveAspectRatio="xMidYMid">
    <g>
				<path d="M108.440498,102.556917 L127.366503,113.338653 L85.7176999,137.670017 L45.0833076,114.483488 L62.9804097,102.991664 L85.6017672,115.903662 L108.440498,102.556917 Z M30.7656258,31.2728312 L30.8380837,53.0681685 L18.9115128,60.0241273 L18.9984623,78.3269937 L34.9102179,87.3987232 L107.484054,45.0543244 L107.556512,66.8496618 L35.011659,109.165077 L0.20288213,89.3116119 L0,49.2423912 L30.7656258,31.2728312 Z M139.858245,30.794609 L170.855737,48.4743375 L170.870228,88.4276255 L136.264333,108.643381 L94.1083251,84.6018482 L112.860431,73.61723 L136.148401,86.8770263 L151.958715,77.6458894 L151.857274,59.343023 L139.930703,52.5319801 L139.858245,30.794609 Z M85.1380366,0 L133.061694,27.3311212 L133.221101,75.4286776 L114.32408,64.6469415 L114.237131,38.3012478 L85.2684609,21.7808458 L56.4302153,38.6200626 L56.5026732,64.9512647 L50.0829029,68.7045841 L37.6926014,76.6459703 L37.5476856,27.823835 L85.1380366,0 Z M63.2267666,45.344156 L76.8488525,53.0971517 L63.2847329,61.0095548 L63.2267666,45.344156 Z" fill="#3F5DFF"></path>
				<path d="M338.494342,50.1553608 C347.942853,50.1553608 353.159822,57.1692859 353.159822,69.6175537 C353.159822,81.8743097 348.10214,89.0031384 338.927419,89.219586 L338.494342,89.2246624 C333.877735,89.3766726 329.700497,86.5037201 328.190828,82.1382794 L327.900997,82.1382794 L327.900997,102.687341 L318.742318,102.687341 L318.742318,51.0103641 L327.900997,51.0103641 L327.900997,57.1692859 L328.190828,57.1692859 C329.665619,52.7866251 333.876171,49.9203704 338.494342,50.1553608 Z M457.397762,50.0973945 C464.918892,50.0973945 469.860521,53.6768149 472.077733,59.5459051 L464.556603,62.9079518 C463.841797,59.6924281 460.980471,57.4310938 457.71498,57.4501137 L457.397762,57.4591175 C452.325709,57.4591175 449.746207,61.0385379 449.746207,66.2699986 L449.746207,73.0665499 C449.746207,78.2980105 452.325709,81.7614983 457.397762,81.7614983 C461.745236,81.7614983 463.918973,79.2544549 465.281182,75.9648661 L472.353073,79.3558959 C469.918488,85.9350736 464.687027,89.2246624 457.455728,89.2246624 C446.38416,89.2246624 440.152781,81.6455657 440.152781,69.5595874 C440.152781,57.6040333 446.38416,50.0973945 457.397762,50.0973945 Z M257.211066,50.0973945 C267.876869,50.0973945 274.600963,57.6040333 274.600963,69.5595874 C274.600963,81.5151415 267.949327,89.1666961 257.211066,89.1666961 C246.472805,89.1666961 239.893627,81.6455657 239.893627,69.5595874 C239.893627,57.6040333 246.545263,50.0973945 257.211066,50.0973945 Z M295.425364,50.0973945 C306.149134,50.0973945 312.815261,57.6040333 312.815261,69.5595874 C312.815261,81.5151415 306.149134,89.1666961 295.425364,89.1666961 C284.701595,89.1666961 278.035467,81.6455657 278.035467,69.5595874 C278.035467,57.6040333 284.701595,50.0973945 295.425364,50.0973945 Z M418.241511,50.1553608 C428.385617,50.1553608 433.704027,54.952074 433.704027,63.4586319 L433.704027,81.0659025 L437.413872,81.0659025 L437.413872,88.3116928 L432.341819,88.3116928 C428.400109,88.3116928 425.965523,85.7321914 425.400352,81.877431 L424.965604,81.877431 C423.748311,86.6741442 419.676177,89.1232213 414.082427,89.1232213 C406.445364,89.2246624 402.141365,84.8626966 402.141365,78.2545358 C402.141365,70.5884896 407.937997,66.806187 418.082103,66.806187 L424.530857,66.806187 L424.530857,64.0382951 C424.530857,59.8792115 422.458561,57.4591175 417.58939,57.4591175 C414.116159,57.3968784 410.873527,59.192203 409.082832,62.1688812 L403.633997,57.3142017 C406.358415,52.9667275 410.72038,50.1553608 418.241511,50.1553608 Z M218.040323,38.4171804 L218.040323,79.9935255 L237.734381,79.9935255 L237.734381,88.3986423 L208.606304,88.3986423 L208.606304,38.4171804 L218.040323,38.4171804 Z M486.395415,35.4029317 L486.395415,67.2844092 L486.743213,67.2844092 L491.684842,60.5603158 L500.060975,50.9668893 L510.436947,50.9668893 L497.553932,65.45847 L511.799156,88.3986423 L500.915979,88.3986423 L491.322552,71.646375 L486.395415,77.0227514 L486.395415,88.3986423 L477.222244,88.3986423 L477.222244,35.4029317 L486.395415,35.4029317 Z M383.244343,38.4171804 C391.475561,38.4171804 396.475157,43.4892337 396.475157,51.2277378 C396.475157,58.9662419 392.127682,61.6761675 387.533851,61.9659991 L387.533851,62.3862549 C391.881325,62.3862549 398.34457,65.5454195 398.34457,73.9795195 C398.34457,82.0078552 392.823278,88.2972012 385.461555,88.2972012 L360.057814,88.2972012 L360.057814,38.4171804 L383.244343,38.4171804 Z M424.530857,72.269513 L418.734224,72.269513 C413.807087,72.269513 411.488434,73.9070616 411.488434,76.8053777 L411.488434,78.0226705 C411.488434,81.0224277 413.56073,82.5295521 417.140151,82.5295521 C421.183302,82.60201 424.530857,80.7181045 424.530857,77.211142 L424.530857,72.269513 Z M257.211066,57.4881007 C252.414353,57.4881007 249.487053,60.5748073 249.487053,66.1830491 L249.487053,73.1245162 C249.487053,78.7762327 252.486811,81.8194647 257.211066,81.8194647 C261.935321,81.8194647 265.007536,78.7762327 265.007536,73.1245162 L265.007536,66.1830491 C265.007536,60.6037905 262.007779,57.4881007 257.211066,57.4881007 Z M295.367398,57.4881007 C290.585176,57.4881007 287.628894,60.5748073 287.628894,66.1830491 L287.628894,73.1245162 C287.628894,78.7762327 290.643143,81.8194647 295.367398,81.8194647 C300.091653,81.8194647 303.163868,78.7762327 303.163868,73.1245162 L303.163868,66.1830491 C303.163868,60.6037905 300.14962,57.4881007 295.367398,57.4881007 Z M335.509076,57.6619996 C331.161602,57.6619996 327.857522,60.0241273 327.857522,63.6760056 L327.857522,75.5591018 C327.857522,79.4283538 331.147111,81.6455657 335.509076,81.6455657 C340.233332,81.6455657 343.522921,78.2545358 343.522921,72.9071425 L343.522921,66.4728807 C343.522921,61.1689622 340.233332,57.6619996 335.509076,57.6619996 Z M382.635697,66.9366113 L369.46285,66.9366113 L369.46285,80.355815 L382.635697,80.355815 C386.215117,80.355815 388.359871,78.4284348 388.359871,74.9214722 L388.359871,72.4579035 C388.359871,68.950941 386.215117,66.9366113 382.635697,66.9366113 Z M381.128573,46.4310246 L369.46285,46.4310246 L369.46285,59.2415819 L381.128573,59.2415819 C382.590054,59.3970177 384.044884,58.8938489 385.098046,57.8686966 C386.151208,56.8435443 386.6934,55.4028025 386.577407,53.9376634 L386.577407,51.7204515 C386.577407,48.3584048 384.563077,46.4310246 381.128573,46.4310246 Z" fill="#001956"></path>
		</g>
</svg>

<svg xmlns="http://www.w3.org/2000/svg" viewBox="0 0 511.799 137.67">
  <path fill="#3f5dff" d="m108.44 102.557 18.927 10.782-41.65 24.331-40.634-23.187 17.897-11.491 22.622 12.912zM30.766 31.273l.072 21.795-11.926 6.956.086 18.303 15.912 9.072 72.574-42.345.073 21.796-72.545 42.315L.202 89.312 0 49.242zm109.092-.478 30.998 17.68.014 39.953-34.606 20.215-42.156-24.041 18.752-10.985 23.288 13.26 15.81-9.231-.1-18.303-11.927-6.811zM85.138 0l47.924 27.331.16 48.098-18.898-10.782-.087-26.346-28.969-16.52L56.43 38.62l.073 26.33-6.42 3.754-12.39 7.941-.145-48.822zM63.227 45.344l13.622 7.753-13.564 7.913z"/>
  <path fill="#001956" d="M338.494 50.155c9.449 0 14.666 7.014 14.666 19.463 0 12.256-5.058 19.385-14.233 19.602l-.433.005a10.535 10.535 0 0 1-10.303-7.087h-.29v20.55h-9.159V51.01h9.159v6.16h.29a10.318 10.318 0 0 1 10.303-7.015zm118.904-.058c7.52 0 12.463 3.58 14.68 9.449l-7.521 3.362a6.97 6.97 0 0 0-6.842-5.458l-.317.01c-5.072 0-7.652 3.579-7.652 8.81v6.797c0 5.231 2.58 8.694 7.652 8.694 4.347 0 6.521-2.507 7.883-5.796l7.072 3.39c-2.435 6.58-7.666 9.87-14.897 9.87-11.072 0-17.303-7.58-17.303-19.665 0-11.956 6.231-19.463 17.245-19.463zm-200.187 0c10.666 0 17.39 7.507 17.39 19.463 0 11.955-6.652 19.607-17.39 19.607s-17.317-7.521-17.317-19.607c0-11.956 6.651-19.463 17.317-19.463zm38.214 0c10.724 0 17.39 7.507 17.39 19.463 0 11.955-6.666 19.607-17.39 19.607-10.723 0-17.39-7.521-17.39-19.607 0-11.956 6.667-19.463 17.39-19.463zm122.817.058c10.144 0 15.462 4.797 15.462 13.304v17.607h3.71v7.246h-5.072c-3.942 0-6.376-2.58-6.942-6.435h-.434c-1.218 4.797-5.29 7.246-10.884 7.246-7.637.102-11.94-4.26-11.94-10.868 0-7.667 5.796-11.449 15.94-11.449h6.449v-2.768c0-4.159-2.072-6.579-6.942-6.579a9.724 9.724 0 0 0-8.506 4.71l-5.449-4.855c2.724-4.347 7.086-7.159 14.608-7.159zM218.04 38.417v41.577h19.694v8.405h-29.128V38.417zm268.355-3.014v31.881h.348l4.942-6.724 8.376-9.593h10.376l-12.883 14.491 14.245 22.94h-10.883l-9.593-16.752-4.928 5.377v11.376h-9.173V35.403zm-103.15 3.014c8.23 0 13.23 5.072 13.23 12.81 0 7.74-4.347 10.45-8.941 10.739v.42c4.347 0 10.81 3.16 10.81 11.594 0 8.028-5.52 14.317-12.882 14.317h-25.404v-49.88zM424.53 72.27h-5.797c-4.927 0-7.246 1.637-7.246 4.535v1.218c0 3 2.073 4.507 5.652 4.507 4.043.072 7.39-1.812 7.39-5.319zM257.21 57.488c-4.797 0-7.724 3.087-7.724 8.695v6.942c0 5.651 3 8.694 7.724 8.694s7.797-3.043 7.797-8.694v-6.942c0-5.58-3-8.695-7.797-8.695zm38.156 0c-4.782 0-7.738 3.087-7.738 8.695v6.942c0 5.651 3.014 8.694 7.738 8.694 4.725 0 7.797-3.043 7.797-8.694v-6.942c0-5.58-3.014-8.695-7.797-8.695zm40.142.174c-4.347 0-7.651 2.362-7.651 6.014v11.883c0 3.87 3.29 6.087 7.651 6.087 4.724 0 8.014-3.391 8.014-8.739v-6.434c0-5.304-3.29-8.811-8.014-8.811zm47.127 9.275h-13.173v13.419h13.173c3.58 0 5.724-1.928 5.724-5.435v-2.463c0-3.507-2.145-5.521-5.724-5.521zm-1.507-20.506h-11.666v12.81h11.666a4.942 4.942 0 0 0 5.448-5.303V51.72c0-3.362-2.014-5.289-5.448-5.289z"/>
</svg>
